X:0717
T:Seige of Belgrade.
M:2/4
L:1/16
Q:1/4=86
I: :: ||
Z:Jack Campin * www.campin.me.uk * 2009
K:D
 d2FG  (AFAF)| d2FG  (AFAF)|(BAGF) E2ef|(gfed) (dc`BA)|
 d2FG  (AFAF)| d2FG  (AFAF)|(BAGF) E3 g|(fedc)  d2   :|
 f2df  (dfdf)| e2ce  (cece)|(fdfd) f2df|(edcB)  A2(Bc)|
(dBdB) (cAcA)|(dBdB) (cAcA)|(dfed) cBAG| A2A2   A4   :|

